X:1
T:Title
%%score { ( 1 3 ) | ( 2 4 ) }
L:1/8
Q:1/4=100
M:6/8
K:F
V:1 treble nm="Grand Piano"
V:3 treble 
V:2 bass 
V:4 bass 
V:1
 [A,C]3 CFG | A2 A .A3 | A3 [^FB]2 A | G6 | [EG]3 GAB | c2 A .[A,DF]3 | [G,CE]3 .[F,=B,D]3 | %7
w: W.~H.~Jude * * *|||||||
 [E,C]6 | [DEB]3 BAG | A2 A .[CFA]3 | B2 B BAG | A2 A .A3 | d3 c2 c | B2 B .A3 | [DFd]3 c2 c | %15
w: ||||||||
 B2 B .[CFA]3 | [B,DFG]6 | [B,CEG]6 | [F,A,CF]6- | [F,A,CF]6 |] %20
w: |||||
V:2
 [F,,F,]3 [C,F,A,]3 | [F,,F,]3 .[F,CF]3 | [F,CF]3 [D,C]3 | [G,B,D]6 | [C,C]3[K:treble] .[B,CE]3 | %5
 [A,CF]3[K:bass] .D,3 | G,,3 z2 D | C,6 | G,3 C,3 | [F,F]3 z3 | [G,DE]3 [C,C]3 | C2 D .[F,CF]3 | %12
 [B,F]3 [A,CF]3 | [G,CE]3 .[F,CF]3 | [B,,B,]3 [A,,A,]3 | [G,,G,]3 .[F,,F,]3 | [B,,,B,,]6 | %17
 z3 z2 F | F,,6- | F,,6 |] %20
V:3
 x6 | [CF]3 z3 | x6 | x6 | x6 | x6 | x6 | x6 | z3 .[CE]3 | x6 | z3 .E3 | x6 | x6 | x6 | z3 [CF]3 | %15
 [CE]3 z3 | x6 | x6 | x6 | x6 |] %20
V:4
 x6 | x6 | x6 | x6 | x3[K:treble] x3 | x3[K:bass] x3 | z3 G,,3 | x6 | x6 | C2 D .C,3 | x6 | %11
 [F,F]3 z3 | x6 | x6 | x6 | x6 | x6 | [C,,C,]6 | x6 | x6 |] %20

